src/assets/icons/letters,fancy,serif-d.svg

<svg width="48" height="48" viewBox="0 0 48 48" fill="none" xmlns="http://www.w3.org/2000/svg">
<path d="M7.87004 37V35.48C8.70604 35.4547 9.37737 35.3913 9.88404 35.29C10.416 35.1633 10.8214 34.948 11.1 34.644C11.404 34.3147 11.6067 33.884 11.708 33.352C11.8094 32.7947 11.86 32.06 11.86 31.148V13.592C11.86 12.7053 11.822 11.996 11.746 11.464C11.67 10.9067 11.5054 10.476 11.252 10.172C10.9987 9.84267 10.644 9.62733 10.188 9.526C9.75737 9.39933 9.18737 9.31067 8.47804 9.26V7.74H22.918C25.35 7.74 27.592 8.12 29.644 8.88C31.696 9.64 33.4694 10.6913 34.964 12.034C36.4587 13.3767 37.624 14.9727 38.46 16.822C39.296 18.6713 39.714 20.6853 39.714 22.864C39.714 24.9413 39.3214 26.854 38.536 28.602C37.7507 30.3247 36.6487 31.8067 35.23 33.048C33.8367 34.2893 32.152 35.2647 30.176 35.974C28.2254 36.658 26.072 37 23.716 37H7.87004ZM18.092 10.058C17.6614 10.058 17.446 10.2733 17.446 10.704V30.35C17.446 31.8193 17.902 32.9087 18.814 33.618C19.726 34.3273 21.132 34.682 23.032 34.682C26.3507 34.682 28.8967 33.6813 30.67 31.68C32.4687 29.6787 33.368 26.7653 33.368 22.94C33.368 20.9133 33.1274 19.102 32.646 17.506C32.1647 15.91 31.468 14.5673 30.556 13.478C29.644 12.3633 28.5294 11.5147 27.212 10.932C25.92 10.3493 24.4634 10.058 22.842 10.058H18.092Z" fill="black"/>
</svg>

<svg xmlns="http://www.w3.org/2000/svg" width="48" height="48" fill="none" viewBox="0 0 48 48">
  <path fill="#000" d="M7.87 37v-1.52c.836-.025 1.507-.089 2.014-.19.532-.127.937-.342 1.216-.646.304-.33.507-.76.608-1.292.101-.557.152-1.292.152-2.204V13.592c0-.887-.038-1.596-.114-2.128-.076-.557-.24-.988-.494-1.292-.253-.33-.608-.545-1.064-.646-.43-.127-1-.215-1.71-.266V7.74h14.44c2.432 0 4.674.38 6.726 1.14 2.052.76 3.825 1.811 5.32 3.154a14.259 14.259 0 013.496 4.788c.836 1.85 1.254 3.863 1.254 6.042 0 2.077-.393 3.99-1.178 5.738a13.011 13.011 0 01-3.306 4.446c-1.393 1.241-3.078 2.217-5.054 2.926-1.95.684-4.104 1.026-6.46 1.026H7.87zm10.222-26.942c-.43 0-.646.215-.646.646V30.35c0 1.47.456 2.559 1.368 3.268.912.71 2.318 1.064 4.218 1.064 3.319 0 5.865-1 7.638-3.002 1.799-2.001 2.698-4.915 2.698-8.74 0-2.027-.24-3.838-.722-5.434-.481-1.596-1.178-2.939-2.09-4.028a8.929 8.929 0 00-3.344-2.546c-1.292-.583-2.749-.874-4.37-.874h-4.75z"/>
</svg>
